icons/network_4g.svg

<svg width="48" height="48" viewBox="0 0 48 48" fill="none" xmlns="http://www.w3.org/2000/svg">
<path fill-rule="evenodd" clip-rule="evenodd" d="M35 27.0001H13C12.4477 27.0001 12 27.4478 12 28.0001V41.0001C12 41.5524 12.4477 42.0001 13 42.0001H35C35.5523 42.0001 36 41.5524 36 41.0001V28.0001C36 27.4478 35.5523 27.0001 35 27.0001ZM13 25.0001C11.3431 25.0001 10 26.3432 10 28.0001V41.0001C10 42.6569 11.3431 44.0001 13 44.0001H35C36.6569 44.0001 38 42.6569 38 41.0001V28.0001C38 26.3432 36.6569 25.0001 35 25.0001H13Z" fill="black"/>
<path fill-rule="evenodd" clip-rule="evenodd" d="M20.2818 29.0406C20.7076 29.1656 21 29.5563 21 30.0001V36.0001C21.5523 36.0001 22 36.4478 22 37.0001C22 37.5524 21.5523 38.0001 21 38.0001V39.0001C21 39.5524 20.5523 40.0001 20 40.0001C19.4477 40.0001 19 39.5524 19 39.0001V38.0001H15.5C15.1342 38.0001 14.7976 37.8003 14.6223 37.4793C14.447 37.1582 14.461 36.767 14.6588 36.4593L19.1588 29.4593C19.3988 29.086 19.856 28.9156 20.2818 29.0406ZM19 36.0001V33.4049L17.3317 36.0001H19Z" fill="black"/>
<path fill-rule="evenodd" clip-rule="evenodd" d="M35.0866 9.40788C34.4835 7.95197 33.5996 6.6291 32.4853 5.5148L33.8995 4.10059C35.1995 5.40061 36.2307 6.94396 36.9343 8.64251C37.6379 10.3411 38 12.1616 38 14.0001C38 15.8386 37.6379 17.6591 36.9343 19.3577C36.2307 21.0562 35.1995 22.5996 33.8995 23.8996L32.4853 22.4854C33.5996 21.3711 34.4835 20.0482 35.0866 18.5923C35.6896 17.1364 36 15.5759 36 14.0001C36 12.4242 35.6896 10.8638 35.0866 9.40788Z" fill="black"/>
<path fill-rule="evenodd" clip-rule="evenodd" d="M29.5433 11.704C29.2417 10.9761 28.7998 10.3146 28.2426 9.75748L29.6569 8.34326C30.3997 9.08613 30.989 9.96804 31.391 10.9386C31.7931 11.9093 32 12.9495 32 14.0001C32 15.0507 31.7931 16.091 31.391 17.0616C30.989 18.0322 30.3997 18.9141 29.6569 19.657L28.2426 18.2428C28.7998 17.6856 29.2417 17.0242 29.5433 16.2962C29.8448 15.5683 30 14.788 30 14.0001C30 13.2122 29.8448 12.432 29.5433 11.704Z" fill="black"/>
<path fill-rule="evenodd" clip-rule="evenodd" d="M19.7574 9.75748C19.2002 10.3146 18.7583 10.9761 18.4567 11.704C18.1552 12.432 18 13.2122 18 14.0001C18 14.788 18.1552 15.5683 18.4567 16.2962C18.7583 17.0242 19.2002 17.6856 19.7574 18.2428L18.3431 19.657C17.6003 18.9141 17.011 18.0322 16.609 17.0616C16.2069 16.091 16 15.0507 16 14.0001C16 12.9495 16.2069 11.9093 16.609 10.9386C17.011 9.96804 17.6003 9.08613 18.3431 8.34326L19.7574 9.75748Z" fill="black"/>
<path fill-rule="evenodd" clip-rule="evenodd" d="M15.5147 5.5148C14.4004 6.6291 13.5165 7.95197 12.9134 9.40788C12.3104 10.8638 12 12.4242 12 14.0001C12 15.5759 12.3104 17.1364 12.9134 18.5923C13.5165 20.0482 14.4004 21.3711 15.5147 22.4854L14.1005 23.8996C12.8005 22.5996 11.7693 21.0562 11.0657 19.3576C10.3621 17.6591 10 15.8386 10 14.0001C10 12.1616 10.3621 10.3411 11.0657 8.64251C11.7693 6.94395 12.8005 5.40061 14.1005 4.10059L15.5147 5.5148Z" fill="black"/>
<path d="M26 14.0001C26 15.1046 25.1046 16.0001 24 16.0001C22.8954 16.0001 22 15.1046 22 14.0001C22 12.8955 22.8954 12.0001 24 12.0001C25.1046 12.0001 26 12.8955 26 14.0001Z" fill="black"/>
<path fill-rule="evenodd" clip-rule="evenodd" d="M32.6739 30.262C33.0856 30.6302 33.1208 31.2624 32.7526 31.674C32.3844 32.0857 31.7522 32.1209 31.3406 31.7527C30.8744 31.3357 30.3041 31.0503 29.6884 30.9279C29.0088 30.7927 28.3044 30.8621 27.6642 31.1272C27.024 31.3924 26.4769 31.8415 26.0919 32.4176C25.7069 32.9937 25.5014 33.6711 25.5014 34.364C25.5014 35.057 25.7069 35.7343 26.0919 36.3105C26.4769 36.8866 27.024 37.3357 27.6642 37.6008C28.3044 37.866 29.0088 37.9354 29.6884 37.8002C30.1642 37.7056 30.6128 37.5137 31.0073 37.239V35.364H29.0049C28.4527 35.364 28.0049 34.9163 28.0049 34.364C28.0049 33.8118 28.4527 33.364 29.0049 33.364H32.0073C32.5595 33.364 33.0073 33.8118 33.0073 34.364V37.7207C33.0073 38.0053 32.886 38.2764 32.6739 38.4661C31.9417 39.1211 31.0458 39.5694 30.0786 39.7618C29.011 39.9741 27.9045 39.8651 26.8988 39.4486C25.8932 39.0321 25.0337 38.3267 24.429 37.4216C23.8242 36.5166 23.5014 35.4525 23.5014 34.364C23.5014 33.2756 23.8242 32.2115 24.429 31.3065C25.0337 30.4014 25.8932 29.696 26.8988 29.2795C27.9045 28.8629 29.011 28.7539 30.0786 28.9663C31.0458 29.1587 31.9417 29.607 32.6739 30.262Z" fill="black"/>
<path fill-rule="evenodd" clip-rule="evenodd" d="M35 27.0001H13C12.4477 27.0001 12 27.4478 12 28.0001V41.0001C12 41.5524 12.4477 42.0001 13 42.0001H35C35.5523 42.0001 36 41.5524 36 41.0001V28.0001C36 27.4478 35.5523 27.0001 35 27.0001ZM13 25.0001C11.3431 25.0001 10 26.3432 10 28.0001V41.0001C10 42.6569 11.3431 44.0001 13 44.0001H35C36.6569 44.0001 38 42.6569 38 41.0001V28.0001C38 26.3432 36.6569 25.0001 35 25.0001H13Z" fill="black"/>
<path fill-rule="evenodd" clip-rule="evenodd" d="M20.2818 29.0406C20.7076 29.1656 21 29.5563 21 30.0001V36.0001C21.5523 36.0001 22 36.4478 22 37.0001C22 37.5524 21.5523 38.0001 21 38.0001V39.0001C21 39.5524 20.5523 40.0001 20 40.0001C19.4477 40.0001 19 39.5524 19 39.0001V38.0001H15.5C15.1342 38.0001 14.7976 37.8003 14.6223 37.4793C14.447 37.1582 14.461 36.767 14.6588 36.4593L19.1588 29.4593C19.3988 29.086 19.856 28.9156 20.2818 29.0406ZM19 36.0001V33.4049L17.3317 36.0001H19Z" fill="black"/>
<path fill-rule="evenodd" clip-rule="evenodd" d="M35.0866 9.40788C34.4835 7.95197 33.5996 6.6291 32.4853 5.5148L33.8995 4.10059C35.1995 5.40061 36.2307 6.94396 36.9343 8.64251C37.6379 10.3411 38 12.1616 38 14.0001C38 15.8386 37.6379 17.6591 36.9343 19.3577C36.2307 21.0562 35.1995 22.5996 33.8995 23.8996L32.4853 22.4854C33.5996 21.3711 34.4835 20.0482 35.0866 18.5923C35.6896 17.1364 36 15.5759 36 14.0001C36 12.4242 35.6896 10.8638 35.0866 9.40788Z" fill="black"/>
<path fill-rule="evenodd" clip-rule="evenodd" d="M29.5433 11.704C29.2417 10.9761 28.7998 10.3146 28.2426 9.75748L29.6569 8.34326C30.3997 9.08613 30.989 9.96804 31.391 10.9386C31.7931 11.9093 32 12.9495 32 14.0001C32 15.0507 31.7931 16.091 31.391 17.0616C30.989 18.0322 30.3997 18.9141 29.6569 19.657L28.2426 18.2428C28.7998 17.6856 29.2417 17.0242 29.5433 16.2962C29.8448 15.5683 30 14.788 30 14.0001C30 13.2122 29.8448 12.432 29.5433 11.704Z" fill="black"/>
<path fill-rule="evenodd" clip-rule="evenodd" d="M19.7574 9.75748C19.2002 10.3146 18.7583 10.9761 18.4567 11.704C18.1552 12.432 18 13.2122 18 14.0001C18 14.788 18.1552 15.5683 18.4567 16.2962C18.7583 17.0242 19.2002 17.6856 19.7574 18.2428L18.3431 19.657C17.6003 18.9141 17.011 18.0322 16.609 17.0616C16.2069 16.091 16 15.0507 16 14.0001C16 12.9495 16.2069 11.9093 16.609 10.9386C17.011 9.96804 17.6003 9.08613 18.3431 8.34326L19.7574 9.75748Z" fill="black"/>
<path fill-rule="evenodd" clip-rule="evenodd" d="M15.5147 5.5148C14.4004 6.6291 13.5165 7.95197 12.9134 9.40788C12.3104 10.8638 12 12.4242 12 14.0001C12 15.5759 12.3104 17.1364 12.9134 18.5923C13.5165 20.0482 14.4004 21.3711 15.5147 22.4854L14.1005 23.8996C12.8005 22.5996 11.7693 21.0562 11.0657 19.3576C10.3621 17.6591 10 15.8386 10 14.0001C10 12.1616 10.3621 10.3411 11.0657 8.64251C11.7693 6.94395 12.8005 5.40061 14.1005 4.10059L15.5147 5.5148Z" fill="black"/>
<path d="M26 14.0001C26 15.1046 25.1046 16.0001 24 16.0001C22.8954 16.0001 22 15.1046 22 14.0001C22 12.8955 22.8954 12.0001 24 12.0001C25.1046 12.0001 26 12.8955 26 14.0001Z" fill="black"/>
<path fill-rule="evenodd" clip-rule="evenodd" d="M32.7526 31.674C32.3844 32.0857 31.7522 32.1209 31.3406 31.7527C30.8744 31.3357 30.3041 31.0503 29.6884 30.9279C29.0088 30.7927 28.3044 30.8621 27.6642 31.1272C27.024 31.3924 26.4769 31.8415 26.0919 32.4176C25.7069 32.9937 25.5014 33.6711 25.5014 34.364C25.5014 35.057 25.7069 35.7343 26.0919 36.3105C26.4769 36.8866 27.024 37.3357 27.6642 37.6008C28.3044 37.866 29.0088 37.9354 29.6884 37.8002C30.1642 37.7056 30.6128 37.5137 31.0073 37.239V35.364H29.0049C28.4527 35.364 28.0049 34.9163 28.0049 34.364C28.0049 33.8118 28.4527 33.364 29.0049 33.364H32.0073C32.5595 33.364 33.0073 33.8118 33.0073 34.364V37.7207C33.0073 38.0053 32.886 38.2764 32.6739 38.4661C31.9417 39.1211 31.0458 39.5694 30.0786 39.7618C29.011 39.9741 27.9045 39.8651 26.8988 39.4486C25.8932 39.0321 25.0337 38.3267 24.429 37.4216C23.8242 36.5166 23.5014 35.4525 23.5014 34.364C23.5014 33.2756 23.8242 32.2115 24.429 31.3065C25.0337 30.4014 25.8932 29.696 26.8988 29.2795C27.9045 28.8629 29.011 28.7539 30.0786 28.9663C31.0458 29.1587 31.9417 29.607 32.6739 30.262C33.0856 30.6302 33.1208 31.2624 32.7526 31.674Z" fill="black"/>
</svg>

<svg xmlns="http://www.w3.org/2000/svg" width="48" height="48">
  <path
    fill-rule="evenodd"
    d="M35 27H13a1 1 0 0 0-1 1v13a1 1 0 0 0 1 1h22a1 1 0 0 0 1-1V28a1 1 0 0 0-1-1m-22-2a3 3 0 0 0-3 3v13a3 3 0 0 0 3 3h22a3 3 0 0 0 3-3V28a3 3 0 0 0-3-3z"
    clip-rule="evenodd"
  />
  <path
    fill-rule="evenodd"
    d="M20.282 29.04A1 1 0 0 1 21 30v6a1 1 0 1 1 0 2v1a1 1 0 1 1-2 0v-1h-3.5a1 1 0 0 1-.841-1.54l4.5-7a1 1 0 0 1 1.123-.42M19 36v-2.595L17.332 36z"
    clip-rule="evenodd"
  />
  <path
    fill-rule="evenodd"
    d="M35.087 9.408a12 12 0 0 0-2.602-3.893L33.9 4.1a14 14 0 0 1 0 19.799l-1.415-1.415a12 12 0 0 0 2.602-13.077"
    clip-rule="evenodd"
  />
  <path
    fill-rule="evenodd"
    d="M29.543 11.704a6 6 0 0 0-1.3-1.947l1.414-1.414a8 8 0 0 1 0 11.314l-1.414-1.414a6 6 0 0 0 1.3-6.539"
    clip-rule="evenodd"
  />
  <path
    fill-rule="evenodd"
    d="M19.757 9.757a6 6 0 0 0 0 8.486l-1.414 1.414a8 8 0 0 1 0-11.314z"
    clip-rule="evenodd"
  />
  <path
    fill-rule="evenodd"
    d="M15.515 5.515a12 12 0 0 0 0 16.97L14.1 23.9a14 14 0 0 1 0-19.8z"
    clip-rule="evenodd"
  />
  <path d="M26 14a2 2 0 1 1-4 0 2 2 0 0 1 4 0" />
  <path
    fill-rule="evenodd"
    d="M32.674 30.262a1 1 0 1 1-1.333 1.49 3.503 3.503 0 1 0-.334 5.487v-1.875h-2.002a1 1 0 0 1 0-2h3.002a1 1 0 0 1 1 1v3.357a1 1 0 0 1-.333.745 5.503 5.503 0 1 1 0-8.204"
    clip-rule="evenodd"
  />
</svg>
